src/static/logos/asciidoctor.svg

<?xml version="1.0" encoding="UTF-8"?>
<svg width="256px" height="256px" viewBox="0 0 256 256" version="1.1" xmlns="http://www.w3.org/2000/svg" xmlns:xlink="http://www.w3.org/1999/xlink" preserveAspectRatio="xMidYMid">
    <g>
				<path d="M63.1726152,0 C28.306618,0 0,28.3051472 0,63.1708015 L0,192.425467 C0,227.291073 28.3072169,255.597452 63.1726152,255.597452 L192.427266,255.597452 C227.293208,255.597452 255.597464,227.291073 255.597464,192.425467 L255.597464,63.1708015 C255.597464,28.3051472 227.293795,6.86411096e-14 192.427266,6.86411096e-14 L63.1726152,0 Z" fill="#E40046"></path>
				<path d="M108.90221,127.708329 L125.419288,127.708329 C127.369268,127.668783 129.188287,128.68646 130.174872,130.368909 C131.161456,132.051358 131.161456,134.135704 130.174872,135.818153 C129.188287,137.500601 127.369268,138.518278 125.419288,138.478732 L63.2272012,138.478732 C61.2772218,138.518278 59.4582022,137.500601 58.4716176,135.818153 C57.4850331,134.135704 57.4850331,132.051358 58.4716176,130.368909 C59.4582022,128.68646 61.2772218,127.668783 63.2272012,127.708329 L97.2372613,127.708329 C97.2535925,127.668879 97.2704165,127.629558 97.2877355,127.590376 L129.474579,50.172957 C130.295904,48.2002112 132.205758,46.8995414 134.342243,46.857926 C136.5638,46.8164587 138.58284,48.1434016 139.426101,50.1991125 L201.369235,201.240827 C202.143801,203.0295 201.891585,205.097082 200.709746,206.647101 C199.527907,208.197119 197.600865,208.987701 195.670955,208.714299 C193.741045,208.440897 192.10942,207.146173 191.404614,205.328882 L134.407757,66.3548136 L108.90221,127.708329 Z M93.833393,164.048713 C93.8142424,164.096741 93.7943672,164.144581 93.773766,164.192217 L76.6653174,205.351463 C75.9402954,207.148639 74.3057342,208.417806 72.384963,208.674977 C70.4641918,208.932147 68.5533313,208.137673 67.3810756,206.594522 C66.2088199,205.051371 65.9558929,202.997447 66.7187466,201.216 L82.167888,164.048712 L51.8409322,164.048712 C49.8910909,164.088039 48.0722953,163.070312 47.085845,161.387949 C46.0993947,159.705587 46.0993947,157.621411 47.085845,155.939049 C48.0722953,154.256686 49.8910909,153.238958 51.8409322,153.278285 L114.039571,153.278261 C115.989274,153.239154 117.807844,154.256934 118.794159,155.939209 C119.780475,157.621485 119.780475,159.705489 118.794159,161.387764 C117.807844,163.07004 115.989274,164.087819 114.039571,164.048712 L93.8333943,164.048712 Z" fill="#FFFFFF"></path>
		</g>
</svg>

<svg width="256" height="256" xmlns="http://www.w3.org/2000/svg" preserveAspectRatio="xMidYMid"><path d="M63.173 0C28.307 0 0 28.305 0 63.17v129.255c0 34.866 28.307 63.172 63.173 63.172h129.254c34.866 0 63.17-28.306 63.17-63.172V63.171C255.597 28.305 227.294 0 192.427 0H63.173z" fill="#E40046"/><path d="M108.902 127.708h16.517a5.386 5.386 0 110 10.77H63.227a5.386 5.386 0 110-10.77h34.01l.05-.118 32.188-77.417a5.386 5.386 0 014.867-3.315 5.386 5.386 0 015.084 3.341l61.943 151.042a5.386 5.386 0 11-9.964 4.088L134.408 66.355l-25.506 61.353zm-15.069 36.34a3.102 3.102 0 01-.06.144l-17.108 41.16a5.386 5.386 0 11-9.946-4.136l15.449-37.167H51.84a5.386 5.386 0 110-10.77h62.199a5.386 5.386 0 110 10.77H93.833z" fill="#FFF"/></svg>
